Adwaita++/actions/16/zoom-fit-height.svg

<svg height="16" viewBox="0 0 16 16" width="16" xmlns="http://www.w3.org/2000/svg">
  <path d="m3.21875 2c-.66981 0-1.21875.5248-1.21875 1.1875v3.8125h2v-3h3v-2zm5.78125 0v2h3v3h2v-3.8125c0-.6627-.54894-1.1875-1.21875-1.1875zm-1 2-2 2h4zm-3 3v2h6v-2zm-3 2v3.8125c0 .6627.54894 1.1875 1.21875 1.1875h3.78125v-2h-3v-3zm10 0v3h-3v2h3.78125c.66981 0 1.21875-.5248 1.21875-1.1875v-3.8125zm-6 1 2 2 2-2z" fill="#474747"/>
</svg>

<svg xmlns="http://www.w3.org/2000/svg" width="16" height="16" viewBox="0 0 16 16">
 <defs>
  <style id="current-color-scheme" type="text/css">
   .ColorScheme-Text { color:#474747; } .ColorScheme-Highlight { color:#4285f4; }
  </style>
 </defs>
 <path style="fill:currentColor" class="ColorScheme-Text" d="M 3.21875 2 C 2.54894 2 2 2.5248 2 3.1875 L 2 7 L 4 7 L 4 4 L 7 4 L 7 2 L 3.21875 2 z M 9 2 L 9 4 L 12 4 L 12 7 L 14 7 L 14 3.1875 C 14 2.5248 13.45106 2 12.78125 2 L 9 2 z M 8 4 L 6 6 L 10 6 L 8 4 z M 5 7 L 5 9 L 11 9 L 11 7 L 5 7 z M 2 9 L 2 12.8125 C 2 13.4752 2.54894 14 3.21875 14 L 7 14 L 7 12 L 4 12 L 4 9 L 2 9 z M 12 9 L 12 12 L 9 12 L 9 14 L 12.78125 14 C 13.45106 14 14 13.4752 14 12.8125 L 14 9 L 12 9 z M 6 10 L 8 12 L 10 10 L 6 10 z"/>
</svg>
